icon/lg/aws-ses.svg

<?xml version="1.0" encoding="UTF-8"?>
<svg viewBox="0 0 256 256" version="1.1" xmlns="http://www.w3.org/2000/svg" xmlns:xlink="http://www.w3.org/1999/xlink" preserveAspectRatio="xMidYMid" height="1em" width="1em">
  <defs>
    <linearGradient x1="0%" y1="100%" x2="100%" y2="0%" id="linearGradient-1">
      <stop stop-color="#BD0816" offset="0%"/>
      <stop stop-color="#FF5252" offset="100%"/>
    </linearGradient>
  </defs>
  <g>
    <rect fill="url(#linearGradient-1)" x="0" y="0" width="256" height="256"/>
    <path d="M182.4,195.1996 C182.4,189.996307 178.0032,185.599428 172.8,185.599428 C167.5968,185.599428 163.2,189.996307 163.2,195.1996 C163.2,200.402893 167.5968,204.799772 172.8,204.799772 C178.0032,204.799772 182.4,200.402893 182.4,195.1996 L182.4,195.1996 Z M128,191.999543 C122.7968,191.999543 118.4,196.396421 118.4,201.599714 C118.4,206.803007 122.7968,211.199886 128,211.199886 C133.2032,211.199886 137.6,206.803007 137.6,201.599714 C137.6,196.396421 133.2032,191.999543 128,191.999543 L128,191.999543 Z M83.2,185.599428 C77.9968,185.599428 73.6,189.996307 73.6,195.1996 C73.6,200.402893 77.9968,204.799772 83.2,204.799772 C88.4032,204.799772 92.8,200.402893 92.8,195.1996 C92.8,189.996307 88.4032,185.599428 83.2,185.599428 L83.2,185.599428 Z M91.536,137.598572 L164.464,137.598572 L139.9648,115.553378 L130.0768,124.027129 C129.4816,124.542338 128.736,124.798343 127.9968,124.798343 C127.2576,124.798343 126.512,124.542338 125.9168,124.027129 L116.032,115.553378 L91.536,137.598572 Z M86.4,90.1545242 L86.4,133.6145 L111.1328,111.354903 L86.4,90.1545242 Z M164.1504,86.397657 L91.8496,86.397657 L127.9968,117.383811 L164.1504,86.397657 Z M169.6,133.6145 L169.6,90.1545242 L144.8672,111.351703 L169.6,133.6145 Z M188.8,195.1996 C188.8,203.871755 181.472,211.199886 172.8,211.199886 C164.128,211.199886 156.8,203.871755 156.8,195.1996 C156.8,187.618665 162.4,181.068148 169.6,179.53852 L169.6,169.599143 L131.2,169.599143 L131.2,185.938635 C138.4,187.468262 144,194.018779 144,201.599714 C144,210.271869 136.672,217.6 128,217.6 C119.328,217.6 112,210.271869 112,201.599714 C112,194.018779 117.6,187.468262 124.8,185.938635 L124.8,169.599143 L86.4,169.599143 L86.4,179.53852 C93.6,181.068148 99.2,187.618665 99.2,195.1996 C99.2,203.871755 91.872,211.199886 83.2,211.199886 C74.528,211.199886 67.2,203.871755 67.2,195.1996 C67.2,187.618665 72.8,181.068148 80,179.53852 L80,166.399086 C80,164.632654 81.4304,163.199028 83.2,163.199028 L124.8,163.199028 L124.8,143.998686 L83.2,143.998686 C81.4304,143.998686 80,142.56506 80,140.798628 L80,83.1976 C80,81.4311683 81.4304,79.9975427 83.2,79.9975427 L172.8,79.9975427 C174.5696,79.9975427 176,81.4311683 176,83.1976 L176,140.798628 C176,142.56506 174.5696,143.998686 172.8,143.998686 L131.2,143.998686 L131.2,163.199028 L172.8,163.199028 C174.5696,163.199028 176,164.632654 176,166.399086 L176,179.53852 C183.2,181.068148 188.8,187.618665 188.8,195.1996 L188.8,195.1996 Z M217.6,127.9984 C217.6,146.901138 211.7664,164.99106 200.7264,180.303334 L195.5328,176.559267 C205.7824,162.341413 211.2,145.550713 211.2,127.9984 C211.2,82.1255808 173.8784,44.8001142 128.0032,44.8001142 C82.1248,44.8001142 44.8,82.1255808 44.8,127.9984 C44.8,145.550713 50.2176,162.341413 60.4672,176.559267 L55.2736,180.303334 C44.2336,164.99106 38.4,146.901138 38.4,127.9984 C38.4,78.5959178 78.5952,38.4 127.9968,38.4 C177.4016,38.4 217.6,78.5959178 217.6,127.9984 L217.6,127.9984 Z" fill="#FFFFFF"/>
  </g>
</svg>

<svg width="256" height="256" xmlns="http://www.w3.org/2000/svg" preserveAspectRatio="xMidYMid"><defs><linearGradient x1="0%" y1="100%" x2="100%" y2="0%" id="a"><stop stop-color="#BD0816" offset="0%"/><stop stop-color="#FF5252" offset="100%"/></linearGradient></defs><path fill="url(#a)" d="M0 0h256v256H0z"/><path d="M182.4 195.2c0-5.204-4.397-9.6-9.6-9.6-5.203 0-9.6 4.396-9.6 9.6 0 5.203 4.397 9.6 9.6 9.6 5.203 0 9.6-4.397 9.6-9.6ZM128 192c-5.203 0-9.6 4.396-9.6 9.6 0 5.203 4.397 9.6 9.6 9.6 5.203 0 9.6-4.397 9.6-9.6 0-5.204-4.397-9.6-9.6-9.6Zm-44.8-6.4c-5.203 0-9.6 4.396-9.6 9.6 0 5.203 4.397 9.6 9.6 9.6 5.203 0 9.6-4.397 9.6-9.6 0-5.204-4.397-9.6-9.6-9.6Zm8.336-48.001h72.928l-24.5-22.046-9.887 8.474a3.176 3.176 0 0 1-2.08.771c-.74 0-1.485-.256-2.08-.77l-9.885-8.475L91.536 137.6ZM86.4 90.155v43.46l24.733-22.26-24.733-21.2Zm77.75-3.757h-72.3l36.147 30.986 36.153-30.986Zm5.45 47.216v-43.46l-24.733 21.198 24.733 22.262Zm19.2 61.586c0 8.672-7.328 16-16 16s-16-7.328-16-16c0-7.581 5.6-14.132 12.8-15.661v-9.94h-38.4v16.34c7.2 1.53 12.8 8.08 12.8 15.66 0 8.673-7.328 16.001-16 16.001s-16-7.328-16-16c0-7.581 5.6-14.132 12.8-15.661v-16.34H86.4v9.94c7.2 1.53 12.8 8.08 12.8 15.66 0 8.673-7.328 16-16 16s-16-7.327-16-16c0-7.58 5.6-14.13 12.8-15.66v-13.14a3.2 3.2 0 0 1 3.2-3.2h41.6v-19.2H83.2a3.2 3.2 0 0 1-3.2-3.2V83.198a3.2 3.2 0 0 1 3.2-3.2h89.6a3.2 3.2 0 0 1 3.2 3.2v57.6a3.2 3.2 0 0 1-3.2 3.2h-41.6V163.2h41.6a3.2 3.2 0 0 1 3.2 3.2v13.14c7.2 1.53 12.8 8.08 12.8 15.66Zm28.8-67.202c0 18.903-5.834 36.993-16.874 52.305l-5.193-3.744c10.25-14.218 15.667-31.008 15.667-48.56 0-45.873-37.322-83.199-83.197-83.199-45.878 0-83.203 37.326-83.203 83.198 0 17.553 5.418 34.343 15.667 48.561l-5.193 3.744C44.234 164.991 38.4 146.901 38.4 127.998c0-49.402 40.195-89.598 89.597-89.598 49.405 0 89.603 40.196 89.603 89.598Z" fill="#FFF"/></svg>
